X:181
T:Souter Creek
C:Aidan O'Rourke
S:LAU - Lightweights and Gentlemen
Z:robin.beech@mcgill.ca
R:reel
M:4/4
L:1/8
K:G
|: BdcA GDGA | ABAG EAGB- | BdcA Gdga | bagd cedc |
BdcA GDGA | ABAG EBgb- | bagd dcBd | cAB/A/G AGcG  ::
DGBd c2BG | EGcd cBGE | DGBd EGcd | A2dc BcGE |
DGBd c2BG | EGcd cBga | bagd c/d/cBd | cABG AGAB :|
